X: 42
T:Da Slockit Light - Harmony
M:C
L:1/8
C:Ed Perlman
S:Boston Scottish Fiddlers
R:Air
K:D
FE|D3 D F2 A2|AGFE F2 A2|G2 B2 F2 A2|GFED CA,B,C|!
D3 D F2 A2|d2 A2 F2 D2|G2 DG E2 C2|D6:||g|d4 c4|!
B4 A2 Bc|d4 c2 B2|A4-A3 c|d2 f2 c3 A|B3 c BAGF|!
G2 DG E2 C2|[A,4D4]-[A,3D3] E|D2 F2 C3 A,|B,2 F2 G2 GF|G2 B2 F2 A2|!
G2 E2 CA,B,C|D3 D F2 A2|agfe d2 F2|G2 D2 A,3 C|D6||
